X:1
T:Glad Day, 77.77
T:Glad Day, 77.77
T:William Wallace Gilchrist, 1895
T:Public Domain Courtesy of the Cyber Hymnal™
C:William Wallace Gilchrist, 1895
Z:Public Domain
Z:Courtesy of the Cyber Hymnal™
%%score ( 1 2 ) ( 3 4 )
L:1/8
Q:1/4=110
M:4/4
K:Ab
V:1 treble 
V:2 treble 
V:3 bass 
V:4 bass 
V:1
 E3 E A2 A2 | c2 A2 [Ee]4 | [Ee]2 (cB) A2 [EG]2 x | F2 [FB]2 (A2 G2) | E3 E A2 [EA]2 | %5
 [Cc]2 [EA]2 f4 | [Ae]2 [Ec]2 (AB) c2 | B3 z A [CA]4 |] %8
V:2
 E3 E A2 A2 | c2 A2 x4 | x2 G2 A2 x3 | F2 E4 x2 | E3 E A2 x2 | x4 (F2 A2) | x4 F2 (EF) | %7
 D2 E2 x5 |] %8
V:3
 E,3 E, A,2 A,2 | C2 A,2 ([G,B,]2 [F,A,][G,B,]) | [A,C]2 (ED) C3 z B, | [D,A,]2 [B,,D]2 (C2 B,2) | %4
 E,3 E, A,2 [C,A,]2 | [F,A,]2 [E,C]2 (A,2 D2) | C2 z G, [F,C]2 A,2 | [E,A,]2 [E,G,]2 [A,,A,]4 x |] %8
V:4
 E,3 E, A,2 A,2 | C2 A,2 x4 | x2 E,2 F,2 C,2 x | x4 B,,4 | E,3 E, x4 | x4 D,4 | A,3 E2 x (C,D,) | %7
 x9 |] %8

